frontend/public/heroicons-outline_sun.svg

<svg width="18" height="18" viewBox="0 0 18 18" fill="none" xmlns="http://www.w3.org/2000/svg">
<path d="M9 1V1.88889M9 16.1111V17M17 9H16.1111M1.88889 9H1M14.6569 14.6569L14.0284 14.0284M3.97156 3.97156L3.34311 3.34311M14.6569 3.34311L14.0284 3.97156M3.97156 14.0284L3.34311 14.6569M12.5556 9C12.5556 9.94299 12.181 10.8474 11.5142 11.5142C10.8474 12.181 9.94299 12.5556 9 12.5556C8.05701 12.5556 7.15264 12.181 6.48584 11.5142C5.81905 10.8474 5.44444 9.94299 5.44444 9C5.44444 8.05701 5.81905 7.15264 6.48584 6.48584C7.15264 5.81905 8.05701 5.44444 9 5.44444C9.94299 5.44444 10.8474 5.81905 11.5142 6.48584C12.181 7.15264 12.5556 8.05701 12.5556 9Z" stroke="black" stroke-width="2" stroke-linecap="round" stroke-linejoin="round"/>
</svg>

<svg xmlns="http://www.w3.org/2000/svg" width="18" height="18" fill="none"><path stroke="#000" stroke-linecap="round" stroke-linejoin="round" stroke-width="2" d="M9 1v.889M9 16.11V17m8-8h-.889M1.89 9H1m13.657 5.657-.629-.629M3.972 3.972l-.629-.629m11.314 0-.629.629M3.972 14.028l-.629.629M12.556 9a3.556 3.556 0 1 1-7.112 0 3.556 3.556 0 0 1 7.112 0"/></svg>
